X: 73
T: No_65_Song_Used_in_Treatment_of_Sick_(n).krn
N: Derived from No_65_Song_Used_in_Treatment_of_Sick_(n).krn
%%abc-version 2.0
%%abcx-abcm2ps-target-version 5.9.1 (29 Sep 2008)
%%abc-creator hum2abc beta
%%abcx-conversion-date 2019/03/15 08:36:49
%%humdrum-veritas 2458111498
%%humdrum-veritas-data 2870204817
%%linebreak <none>
%%barnumbers 0
L: 1/4
M: 2/4
K: Bb clef=treble
[K:clef=treble][M:2/4]F2- | 
F2- | 
FB | 
c2 | 
dc ||  
[M:3/4]B3 ||  
[M:2/4]cB ||  
[M:3/4]B2D/C/ | 
DC2 | 
DD//C3//-C | 
B,3- ||  
[M:2/4]B,2 | 
D//C3//-C ||  
[M:3/4]B,3 ||  
[M:2/4]DC | 
C2 | 
CB, ||  
[M:3/4]B,3 ||  
[M:2/4]CB, | 
B,2- | 
B,2 | 
B,2 |]  



